!!!OTL: 116. Skotshne
!!!Genre:	Skotshne
!!!Mode:	Altered Dorian
!!!Listening/dance:	dance
!!!:	*G:
!!!One_Mode:	no
**kern
*thru
*part1
*staff1
*clefG2
*>A
*k[b-]
*G:
=18!|:
*k[f#]
!LO:TX:a:i:t=G-major
!LO:TX:a:t="Segno"
16bLL
16g
16b
16ddJJ
(8ccL
8bJ)
=19
16bLL
16g
16b
16ddJJ
8ccL
8bJ
=20
16bLL
16cc
16dd
16eeJJ
16ffnLL
16ee
16dd
16cc#XJJ
=21
8dd
8r
4gg^
=22
16bLL
16g
16b
16ddJJ
(8ccnL
8bJ)
=23
8dd
8r
(>8qcc#X/
4dd)
!!!End-Modulation
*G:
!LO:TX:a:i:t=G-major
!LO:TX:a:t="Segno"
16bLL
16g
16b
16ddJJ
(8ccL
8bJ)
=19
16bLL
16g
16b
16ddJJ
8ccL
8bJ
=20
16bLL
16cc
16dd
16eeJJ
16ffnLL
16ee
16dd
16cc#XJJ
=21
8dd
8r
4gg^
=22
16bLL
16g
16b
16ddJJ
(8ccnL
8bJ)
=23
8dd
8r
(>8qcc#X/
4dd)
!!!End-Modulation
*-
